modules/linea-weather/icons/weather-mistyrain.svg

<svg xmlns="http://www.w3.org/2000/svg" width="64" height="64" viewBox="0 0 64 64"><path fill="none" stroke="#000" stroke-width="2" stroke-miterlimit="10" d="M55 40c4.565 0 8-3.435 8-8 0-4.565-3.435-9-8-9 0-11.414-9.586-20-21-20-10.102 0-19.2 6.423-21 16h-2C5.292 19 1 24.292 1 30s4.292 10 10 10h44zM17 59l-1 2m-9-2l-1 2m21-2l-1 2m11-2l-1 2m11-2l-1 2m-22-9l-1 2m-9-2l-1 2m21-2l-1 2m11-2l-1 2m11-2l-1 2M19 44l-1 2m-9-2l-1 2m21-2l-1 2m11-2l-1 2m11-2l-1 2"/></svg>

<svg xmlns="http://www.w3.org/2000/svg" width="64" height="64" viewBox="0 0 64 64"><path fill="none" stroke="#000" stroke-width="2" stroke-miterlimit="10" d="M55 40c4.565 0 8-3.435 8-8 0-4.565-3.435-9-8-9 0-11.414-9.586-20-21-20-10.102 0-19.2 6.423-21 16h-2C5.292 19 1 24.292 1 30s4.292 10 10 10h44zM17 59l-1 2M7 59l-1 2M27 59l-1 2M37 59l-1 2M47 59l-1 2M24 52l-1 2M14 52l-1 2M34 52l-1 2M44 52l-1 2M54 52l-1 2M19 44l-1 2M9 44l-1 2M29 44l-1 2M39 44l-1 2M49 44l-1 2"/></svg>
